previewlut.cube
TITLE "Generated by Resolve"
LUT_3D_SIZE 9
0 0 0
0.12343 0 0
0.252186 0 0
0.383017 0 0
0.515221 0 0
0.648463 0 0
0.782513 0 0
0.917266 0 0
1 0 0
0 0.118914 0
0.117205 0.117449 0
0.246876 0.115007 0
0.378378 0.112276 0
0.511116 0.109361 0
0.644785 0.10634 0
0.779232 0.103227 0
0.914305 0.100038 0
1 0.0968185 0
0 0.242939 0
0.109377 0.241978 0
0.23946 0.239963 0
0.371328 0.237583 0
0.504387 0.234989 0
0.638346 0.232242 0
0.773037 0.229389 0
0.908354 0.226444 0
1 0.223438 0
0 0.368978 0
0.101213 0.368322 0
0.231586 0.366567 0
0.363699 0.364446 0
0.496986 0.362081 0
0.631159 0.359548 0
0.766049 0.356893 0
0.901549 0.354147 0
1 0.351308 0
0 0.49633 0
0.0928817 0.495903 0
0.223453 0.494362 0
0.355764 0.492424 0
0.489235 0.490242 0
0.623575 0.487877 0
0.758618 0.48539 0
0.89427 0.48278 0
1 0.480079 0
0 0.624674 0
0.0844434 0.624414 0
0.215183 0.623056 0
0.347646 0.621271 0
0.481254 0.619226 0
0.615747 0.617014 0
0.750927 0.614649 0
0.886702 0.612177 0
1 0.609598 0
0 0.753826 0
0.0759136 0.753704 0
0.20679 0.752468 0
0.339391 0.75082 0
0.473121 0.748913 0
0.607736 0.746822 0
0.743038 0.744564 0
0.87892 0.742199 0
1 0.739742 0
0 0.883619 0
0.0673228 0.883635 0
0.198322 0.882521 0
0.331029 0.880995 0
0.464881 0.879194 0
0.599588 0.877195 0
0.734997 0.875044 0
0.870985 0.872786 0
1 0.87042 0
0 1 0
0.0586862 1 0
0.189776 1 0
0.322591 1 0
0.456535 1 0
0.591333 1 0
0.726833 1 0
0.862913 1 0
0.999496 1 0
0 0 0.125185
0.122621 0 0.122332
0.25153 0 0.118944
0.382467 0 0.11545
0.514733 0 0.111879
0.648035 0 0.108263
0.782132 0 0.104616
0.916915 0 0.100938
1 0 0.0972457
0 0.118135 0.118318
0.116747 0.116747 0.116747
0.246464 0.114366 0.114168
0.378012 0.111666 0.111269
0.510796 0.108797 0.108202
0.644495 0.105791 0.105013
0.778958 0.102708 0.101732
0.914076 0.0995651 0.0983749
1 0.0963607 0.0949721
0 0.242344 0.11046
0.109056 0.241413 0.109346
0.239185 0.239429 0.107164
0.371069 0.237079 0.104631
0.504158 0.234516 0.101854
0.638132 0.2318 0.0989395
0.772854 0.228962 0.0959029
0.908202 0.226047 0.0927901
1 0.223056 0.0895857
0 0.36849 0.102403
0.100999 0.367849 0.101579
0.231388 0.36614 0.0996719
0.363516 0.364034 0.0973678
0.496818 0.361685 0.0948348
0.631022 0.359182 0.0921187
0.765927 0.356542 0.0892805
0.901442 0.353796 0.0863355
1 0.350973 0.0833143
0 0.495918 0.0942245
0.0927443 0.495506 0.0936294
0.223331 0.493996 0.0919203
0.355657 0.492073 0.0897993
0.489128 0.489906 0.0874342
0.623484 0.487556 0.0848859
0.758556 0.485069 0.0822003
0.894224 0.48249 0.079408
1 0.479805 0.076524
0 0.624323 0.0859693
0.0843519 0.624079 0.0855421
0.215106 0.622736 0.0840009
0.347585 0.620966 0.0820325
0.481209 0.618952 0.0798199
0.615702 0.616739 0.077409
0.750912 0.614389 0.0748608
0.886702 0.611917 0.0721904
1 0.609354 0.0694285
0 0.753521 0.0776532
0.0758831 0.753414 0.0773785
0.20676 0.752209 0.0759594
0.339376 0.750561 0.0741283
0.473121 0.748669 0.0720378
0.607736 0.746578 0.069749
0.743053 0.74435 0.0673075
0.87895 0.741985 0.064744
1 0.739528 0.062089
0 0.883375 0.0692912
0.0673228 0.883391 0.0691234
0.198337 0.882292 0.0678264
0.331044 0.880766 0.0661173
0.464912 0.878981 0.0641184
0.599634 0.876997 0.0619364
0.735042 0.874861 0.0596017
0.871046 0.872602 0.057145
1 0.870237 0.0545815
0 1 0.0608835
0.0587167 1 0.0608225
0.189822 1 0.0596323
0.322637 1 0.0580148
0.456596 1 0.0561227
0.591409 1 0.0540322
0.726909 1 0.0517891
0.863005 1 0.0494087
0.999588 1 0.0469368
0 0 0.255772
0.121462 0 0.253193
0.250507 0 0.249943
0.381537 0 0.246525
0.513878 0 0.243015
0.647227 0 0.23946
0.781369 0 0.235859
0.916197 0 0.232227
1 0 0.228565
0 0.116976 0.249424
0.115908 0.115648 0.247913
0.245686 0.113313 0.24538
0.377264 0.110674 0.242542
0.510079 0.107836 0.239506
0.643824 0.10486 0.236347
0.778317 0.101808 0.233082
0.913451 0.0986954 0.229755
1 0.0955062 0.226383
0 0.241352 0.241733
0.108354 0.240467 0.240665
0.238514 0.238514 0.238514
0.370428 0.236194 0.235996
0.503548 0.233646 0.233249
0.637552 0.230961 0.230365
0.77229 0.228138 0.227344
0.907652 0.225238 0.224247
1 0.222278 0.221073
0 0.367605 0.233783
0.100389 0.366995 0.23299
0.230808 0.365301 0.231098
0.362966 0.36321 0.228824
0.496284 0.360891 0.226291
0.630488 0.358404 0.223606
0.765423 0.355779 0.220783
0.900954 0.353048 0.217853
1 0.350256 0.214847
0 0.495109 0.225681
0.0922103 0.494713 0.225101
0.222812 0.493217 0.223407
0.355154 0.491325 0.221317
0.488655 0.489174 0.218967
0.623026 0.486839 0.216434
0.758099 0.484367 0.213764
0.893782 0.481788 0.210986
1 0.479118 0.208118
0 0.62359 0.217487
0.0838788 0.623362 0.217075
0.214649 0.622019 0.215549
0.347143 0.620264 0.213596
0.480781 0.61825 0.211383
0.61529 0.616068 0.208988
0.7505 0.613718 0.206455
0.886305 0.611276 0.2038
1 0.608728 0.201053
0 0.752819 0.209216
0.0754406 0.752743 0.208957
0.206348 0.751537 0.207553
0.338964 0.749905 0.205737
0.472724 0.748028 0.203647
0.607355 0.745937 0.201373
0.742672 0.743725 0.198947
0.878584 0.741375 0.196399
1 0.738933 0.193744
0 0.882719 0.2009
0.0669413 0.88275 0.200748
0.197955 0.881666 0.199466
0.330678 0.88014 0.197757
0.464546 0.87837 0.195773
0.599283 0.876387 0.193606
0.734707 0.874266 0.191272
0.87071 0.872023 0.188815
1 0.869673 0.186267
0 1 0.192523
0.0583658 1 0.192477
0.189487 1 0.191302
0.322301 1 0.189685
0.456275 1 0.187808
0.591089 1 0.185718
0.726604 1 0.183474
0.862699 1 0.181125
0.999298 1 0.178653
0 0 0.388464
0.120226 0 0.386099
0.249378 0 0.382956
0.380484 0 0.379614
0.512886 0 0.376165
0.646281 0 0.372656
0.780468 0 0.3691
0.915343 0 0.365499
1 0 0.361883
0 0.115694 0.382544
0.114931 0.114412 0.381079
0.244755 0.112139 0.378607
0.376379 0.109529 0.375799
0.509224 0.106722 0.372793
0.643 0.103792 0.369665
0.777523 0.100771 0.36643
0.912688 0.097673 0.363134
1 0.0945144 0.359777
0 0.240223 0.375006
0.107515 0.239368 0.373968
0.237705 0.237446 0.371847
0.36965 0.235157 0.36936
0.502785 0.232639 0.366644
0.63682 0.229969 0.36376
0.771572 0.227176 0.360769
0.90695 0.224292 0.357687
1 0.221332 0.354543
0 0.366583 0.367147
0.0996414 0.365988 0.366384
0.230076 0.364324 0.364508
0.362249 0.362249 0.362249
0.495598 0.359945 0.359747
0.629831 0.357473 0.357076
0.764767 0.354864 0.354269
0.900313 0.352163 0.351354
1 0.349371 0.348363
0 0.494163 0.359121
0.0915236 0.493782 0.358557
0.222156 0.492302 0.356893
0.354513 0.49041 0.354803
0.488014 0.488273 0.352468
0.6224 0.485969 0.34995
0.757504 0.483513 0.347295
0.893202 0.480949 0.344533
1 0.478294 0.34168
0 0.62269 0.350988
0.0832532 0.622477 0.350591
0.214038 0.621149 0.349081
0.346532 0.61941 0.347143
0.480186 0.617411 0.344945
0.61471 0.615228 0.342565
0.749935 0.612909 0.340032
0.885756 0.610468 0.337392
1 0.607919 0.334646
0 0.75198 0.342779
0.0748608 0.751904 0.342504
0.205783 0.750713 0.341131
0.338415 0.749096 0.339315
0.47219 0.747219 0.33724
0.606821 0.745159 0.334981
0.742153 0.742947 0.332555
0.87808 0.740612 0.330022
1 0.73817 0.327382
0 0.88191 0.334493
0.066392 0.881956 0.33434
0.197421 0.880873 0.333074
0.330159 0.879377 0.33138
0.464042 0.877607 0.329412
0.598779 0.875639 0.327245
0.734218 0.873518 0.324926
0.870237 0.871275 0.322484
1 0.86894 0.319936
0 1 0.326146
0.0578622 1 0.326116
0.188983 1 0.324941
0.321828 1 0.323339
0.455787 1 0.321462
0.590616 1 0.319387
0.726146 1 0.317159
0.862242 1 0.314809
0.998856 1 0.312337
0 0 0.522545
0.118914 0 0.520333
0.248173 0 0.517296
0.379339 0 0.514031
0.511803 0 0.510643
0.645243 0 0.507179
0.779477 0 0.503655
0.914382 0 0.500099
1 0 0.496498
0 0.114321 0.516976
0.113863 0.1131 0.515572
0.243732 0.110857 0.51313
0.375402 0.108293 0.510369
0.508278 0.105516 0.507393
0.642084 0.102617 0.504295
0.776638 0.0996262 0.501091
0.911818 0.0965438 0.497826
1 0.0934157 0.494484
0 0.239002 0.50959
0.106584 0.238178 0.508583
0.236805 0.236286 0.506493
0.36878 0.234012 0.504021
0.50193 0.231525 0.501335
0.635981 0.22887 0.498482
0.770764 0.226108 0.495506
0.906157 0.223239 0.492454
1 0.22031 0.489311
0 0.365454 0.501839
0.0988022 0.364889 0.501091
0.229252 0.363241 0.499245
0.361456 0.361196 0.497002
0.49482 0.358907 0.494514
0.629053 0.356451 0.491859
0.764019 0.353857 0.489067
0.89958 0.351171 0.486168
1 0.348394 0.483192
0 0.493111 0.493874
0.0907454 0.492744 0.493339
0.221393 0.491279 0.491676
0.353765 0.489418 0.489616
0.487297 0.487297 0.487297
0.621698 0.484993 0.484794
0.756802 0.482551 0.482155
0.892515 0.480003 0.479393
1 0.477348 0.476555
0 0.621683 0.485801
0.0825208 0.621485 0.48542
0.213321 0.620172 0.483909
0.345846 0.618448 0.481987
0.479515 0.61648 0.479805
0.614038 0.614298 0.47744
0.749279 0.611994 0.474922
0.8851 0.609552 0.472297
1 0.607034 0.469566
0 0.751019 0.477623
0.0741894 0.750957 0.477378
0.205112 0.749783 0.476005
0.337758 0.74818 0.474205
0.471534 0.746319 0.472145
0.606195 0.744259 0.469886
0.741527 0.742061 0.467491
0.87747 0.739727 0.464958
1 0.737316 0.462333
0 0.880995 0.469383
0.0657511 0.881056 0.469261
0.196796 0.879988 0.467994
0.329549 0.878492 0.4663
0.463432 0.876738 0.464347
0.598184 0.874784 0.462196
0.733623 0.872679 0.459876
0.869657 0.870436 0.45745
1 0.868101 0.454917
0 1 0.461082
0.0572518 1 0.461051
0.188388 1 0.459892
0.321233 1 0.458305
0.455222 1 0.456443
0.590051 1 0.454368
0.725582 1 0.452155
0.861692 1 0.449805
0.998306 0.999374 0.447349
0 0 0.657679
0.117571 0 0.655589
0.246921 0 0.652628
0.378164 0 0.649439
0.510674 0 0.646097
0.64416 0 0.64268
0.778424 0 0.6392
0.913359 0 0.635676
1 0 0.63212
0 0.112886 0.652399
0.112749 0.111727 0.651041
0.242664 0.109529 0.648661
0.374365 0.106981 0.64593
0.507271 0.10425 0.642985
0.641108 0.101381 0.639918
0.775692 0.0984054 0.636744
0.910903 0.0953536 0.633494
1 0.0922408 0.630182
0 0.23772 0.645167
0.105592 0.236927 0.644175
0.235828 0.23505 0.642115
0.367834 0.232807 0.639689
0.501015 0.230335 0.637018
0.635081 0.22771 0.63418
0.769879 0.224964 0.631235
0.905303 0.222126 0.628183
1 0.219196 0.625071
0 0.364248 0.637491
0.0978866 0.363714 0.636774
0.228367 0.362081 0.634943
0.360586 0.360052 0.632731
0.493965 0.357794 0.630259
0.628214 0.355352 0.627619
0.763195 0.352773 0.624842
0.898787 0.350103 0.621973
1 0.347341 0.618997
0 0.491981 0.629618
0.0899062 0.49163 0.629084
0.220554 0.490196 0.627451
0.352956 0.488334 0.625391
0.486488 0.486229 0.623087
0.620905 0.48394 0.6206
0.756024 0.481514 0.617975
0.891752 0.478981 0.615228
1 0.476341 0.612406
0 0.620615 0.621592
0.0817273 0.620432 0.621225
0.212543 0.619135 0.61973
0.345083 0.617426 0.617823
0.478752 0.615457 0.615656
0.613306 0.613306 0.613306
0.748547 0.611002 0.610788
0.884382 0.608576 0.608179
1 0.606058 0.605463
0 0.749996 0.613474
0.0734417 0.74995 0.61323
0.204379 0.748775 0.611872
0.337026 0.747189 0.610086
0.470832 0.745342 0.608026
0.605478 0.743297 0.605783
0.740841 0.7411 0.603387
0.876783 0.738796 0.60087
1 0.73637 0.59826
0 0.880018 0.605264
0.0650492 0.880079 0.605142
0.196094 0.879026 0.603891
0.328862 0.877546 0.602213
0.46276 0.875792 0.600275
0.597513 0.873854 0.598123
0.732967 0.871748 0.595819
0.869001 0.869535 0.593393
1 0.867201 0.590875
0 1 0.596994
0.0565805 1 0.596979
0.187716 1 0.595834
0.320577 1 0.594247
0.454566 1 0.592386
0.58941 1 0.590326
0.724956 1 0.588113
0.861067 1 0.585779
0.997696 0.998489 0.583337
0 0 0.793637
0.116197 0 0.791669
0.245624 0 0.788785
0.376928 0 0.785657
0.509499 0 0.782376
0.643015 0 0.778988
0.777325 0 0.775555
0.912291 0 0.772061
1 0 0.768521
0 0.111421 0.788647
0.111589 0.110292 0.787335
0.241535 0.108141 0.784985
0.373281 0.105638 0.782284
0.506218 0.102922 0.77937
0.64007 0.100084 0.776333
0.774685 0.0971389 0.77319
0.909911 0.0941176 0.769955
1 0.0910201 0.766659
0 0.236378 0.781537
0.10454 0.235615 0.780575
0.234806 0.233768 0.778546
0.366842 0.231556 0.776135
0.500038 0.229099 0.77348
0.634134 0.22649 0.770672
0.768948 0.223774 0.767742
0.904387 0.220951 0.764721
1 0.218036 0.761624
0 0.362997 0.773953
0.0969253 0.362478 0.773251
0.22742 0.360876 0.77145
0.359655 0.358862 0.769253
0.49305 0.356619 0.766796
0.627329 0.354192 0.764172
0.762325 0.351644 0.76141
0.897917 0.348974 0.758556
1 0.346227 0.755596
0 0.490791 0.76614
0.0889906 0.490471 0.765637
0.219669 0.489036 0.764004
0.352071 0.487205 0.761975
0.485634 0.485115 0.759686
0.620066 0.482841 0.757214
0.755199 0.48043 0.754589
0.890929 0.477897 0.751873
1 0.475288 0.74905
0 0.619486 0.758175
0.0808881 0.619318 0.757824
0.211704 0.618036 0.756344
0.344259 0.616342 0.754452
0.477943 0.614389 0.7523
0.612497 0.612238 0.74995
0.747753 0.609949 0.747448
0.883604 0.607538 0.744839
1 0.605035 0.742138
0 0.748913 0.750088
0.0726329 0.748882 0.749874
0.203586 0.747723 0.748516
0.336248 0.746151 0.746746
0.470054 0.744305 0.744701
0.604715 0.742275 0.742473
0.740093 0.740093 0.740093
0.876036 0.737789 0.737575
1 0.735378 0.734966
0 0.878981 0.741939
0.064271 0.879057 0.741817
0.195331 0.878004 0.740581
0.328115 0.876539 0.738918
0.462013 0.874784 0.73698
0.59678 0.872862 0.734844
0.73225 0.870771 0.732555
0.868284 0.868559 0.730129
1 0.866239 0.727611
0 1 0.7337
0.0558328 1 0.7337
0.186999 1 0.732555
0.31986 1 0.730968
0.453864 1 0.729122
0.588708 1 0.727077
0.724269 1 0.72488
0.860395 0.999786 0.722545
0.997024 0.997559 0.720104
0 0 0.930297
0.114809 0 0.928435
0.244297 0 0.925628
0.375662 0 0.922545
0.508278 0 0.91931
0.64184 0 0.915969
0.776181 0 0.912566
0.911177 0 0.909102
1 0 0.905592
0 0.109911 0.925551
0.110384 0.108827 0.924285
0.240375 0.106706 0.921965
0.372152 0.104234 0.91931
0.505119 0.101564 0.916426
0.639002 0.0987411 0.91342
0.773632 0.0958267 0.910292
0.908888 0.0928206 0.907088
1 0.0897536 0.903807
0 0.234989 0.918563
0.103456 0.234257 0.917647
0.233753 0.232441 0.915633
0.365789 0.230243 0.913252
0.499016 0.227817 0.910628
0.633127 0.225238 0.907835
0.767971 0.222522 0.904921
0.903426 0.219715 0.901915
1 0.216831 0.898833
0 0.3617 0.911086
0.0959029 0.361212 0.910399
0.226429 0.359625 0.908614
0.358679 0.357626 0.906432
0.492103 0.355398 0.904005
0.626398 0.352987 0.901396
0.761395 0.350454 0.89865
0.897017 0.347799 0.895796
1 0.345068 0.892866
0 0.48957 0.903334
0.0880446 0.48925 0.902831
0.218738 0.487846 0.901228
0.351156 0.486015 0.899214
0.484733 0.48394 0.896941
0.619181 0.481682 0.894469
0.75433 0.479286 0.891875
0.890074 0.476768 0.889158
1 0.474159 0.886351
0 0.618311 0.895415
0.0799878 0.618158 0.895079
0.210819 0.616892 0.893614
0.343389 0.615198 0.891737
0.477089 0.61326 0.889586
0.611658 0.611124 0.887251
0.746929 0.60885 0.884779
0.88278 0.606455 0.88217
1 0.603952 0.879484
0 0.747784 0.887388
0.0717784 0.747768 0.887175
0.202747 0.746624 0.885832
0.335424 0.745052 0.884077
0.46923 0.743221 0.882048
0.603906 0.741192 0.87982
0.739284 0.739025 0.87744
0.875257 0.736736 0.874952
1 0.73434 0.872343
0 0.877882 0.879255
0.0634623 0.877974 0.879164
0.194537 0.876936 0.877928
0.327306 0.875471 0.87628
0.461234 0.873747 0.874342
0.596002 0.871809 0.872221
0.731472 0.869734 0.869932
0.867536 0.867536 0.867536
1 0.865217 0.865019
0 1 0.871061
0.0550546 1 0.871061
0.186221 1 0.869932
0.319097 1 0.86836
0.453101 1 0.866529
0.587976 1 0.864485
0.723522 1 0.862287
0.859663 0.998795 0.859968
0.996292 0.996567 0.857542
0 0 1
0.113405 0 1
0.242954 0 1
0.374365 0 1
0.507027 0 1
0.640635 0 1
0.775006 0 1
0.910033 0 1
1 0 1
0 0.10837 1
0.109148 0.107332 1
0.23917 0.105241 1
0.370977 0.102815 1
0.50399 0.10016 1
0.637903 0.0973678 1
0.772549 0.0944686 1
0.90782 0.0914931 1
1 0.0884413 1
0 0.23357 1
0.102327 0.232868 1
0.232654 0.231083 1
0.364721 0.228901 1
0.497963 0.226505 1
0.632105 0.223941 1
0.766964 0.221241 1
0.902434 0.218448 1
1 0.215579 1
0 0.360372 1
0.0948653 0.359899 1
0.225406 0.358328 1
0.357671 0.356359 1
0.491112 0.354147 1
0.625422 0.351751 1
0.760433 0.349218 1
0.896071 0.346593 1
1 0.343877 1
0 0.488304 1
0.087068 0.487999 1
0.217777 0.48661 1
0.35021 0.484794 1
0.483787 0.482734 1
0.61825 0.480491 1
0.753414 0.478111 1
0.889174 0.475608 1
1 0.473014 1
0 0.61709 1
0.079057 0.616953 1
0.209903 0.615702 1
0.342473 0.614023 1
0.476188 0.6121 1
0.610773 0.609979 1
0.746044 0.607706 1
0.881926 0.605325 1
1 0.602838 1
0 0.746624 1
0.0708782 0.746609 1
0.201862 0.745464 1
0.334539 0.743923 1
0.468376 0.742092 1
0.603067 0.740078 1
0.738445 0.737926 1
0.874418 0.735637 1
1 0.733242 1
0 0.876753 1
0.0626078 0.876844 1
0.193683 0.875822 1
0.326482 0.874372 1
0.46041 0.872648 1
0.595193 0.870726 1
0.730663 0.868666 1
0.866728 0.866468 1
1 0.864164 1
0 1 1
0.0542306 1 1
0.185412 1 1
0.318288 1 1
0.452308 1 1
0.587182 1 1
0.722744 0.999863 1
0.858885 0.997757 0.997955
0.995529 0.995529 0.995529
