previewlut.cube
TITLE "Generated by Resolve"
LUT_3D_SIZE 5
0 0 0
0.252186 0 0
0.515221 0 0
0.782513 0 0
1 0 0
0 0.242939 0
0.23946 0.239963 0
0.504387 0.234989 0
0.773037 0.229389 0
1 0.223438 0
0 0.49633 0
0.223453 0.494362 0
0.489235 0.490242 0
0.758618 0.48539 0
1 0.480079 0
0 0.753826 0
0.20679 0.752468 0
0.473121 0.748913 0
0.743038 0.744564 0
1 0.739742 0
0 1 0
0.189776 1 0
0.456535 1 0
0.726833 1 0
0.999496 1 0
0 0 0.255772
0.250507 0 0.249943
0.513878 0 0.243015
0.781369 0 0.235859
1 0 0.228565
0 0.241352 0.241733
0.238514 0.238514 0.238514
0.503548 0.233646 0.233249
0.77229 0.228138 0.227344
1 0.222278 0.221073
0 0.495109 0.225681
0.222812 0.493217 0.223407
0.488655 0.489174 0.218967
0.758099 0.484367 0.213764
1 0.479118 0.208118
0 0.752819 0.209216
0.206348 0.751537 0.207553
0.472724 0.748028 0.203647
0.742672 0.743725 0.198947
1 0.738933 0.193744
0 1 0.192523
0.189487 1 0.191302
0.456275 1 0.187808
0.726604 1 0.183474
0.999298 1 0.178653
0 0 0.522545
0.248173 0 0.517296
0.511803 0 0.510643
0.779477 0 0.503655
1 0 0.496498
0 0.239002 0.50959
0.236805 0.236286 0.506493
0.50193 0.231525 0.501335
0.770764 0.226108 0.495506
1 0.22031 0.489311
0 0.493111 0.493874
0.221393 0.491279 0.491676
0.487297 0.487297 0.487297
0.756802 0.482551 0.482155
1 0.477348 0.476555
0 0.751019 0.477623
0.205112 0.749783 0.476005
0.471534 0.746319 0.472145
0.741527 0.742061 0.467491
1 0.737316 0.462333
0 1 0.461082
0.188388 1 0.459892
0.455222 1 0.456443
0.725582 1 0.452155
0.998306 0.999374 0.447349
0 0 0.793637
0.245624 0 0.788785
0.509499 0 0.782376
0.777325 0 0.775555
1 0 0.768521
0 0.236378 0.781537
0.234806 0.233768 0.778546
0.500038 0.229099 0.77348
0.768948 0.223774 0.767742
1 0.218036 0.761624
0 0.490791 0.76614
0.219669 0.489036 0.764004
0.485634 0.485115 0.759686
0.755199 0.48043 0.754589
1 0.475288 0.74905
0 0.748913 0.750088
0.203586 0.747723 0.748516
0.470054 0.744305 0.744701
0.740093 0.740093 0.740093
1 0.735378 0.734966
0 1 0.7337
0.186999 1 0.732555
0.453864 1 0.729122
0.724269 1 0.72488
0.997024 0.997559 0.720104
0 0 1
0.242954 0 1
0.507027 0 1
0.775006 0 1
1 0 1
0 0.23357 1
0.232654 0.231083 1
0.497963 0.226505 1
0.766964 0.221241 1
1 0.215579 1
0 0.488304 1
0.217777 0.48661 1
0.483787 0.482734 1
0.753414 0.478111 1
1 0.473014 1
0 0.746624 1
0.201862 0.745464 1
0.468376 0.742092 1
0.738445 0.737926 1
1 0.733242 1
0 1 1
0.185412 1 1
0.452308 1 1
0.722744 0.999863 1
0.995529 0.995529 0.995529
