previewlut.cube
TITLE "Generated by Resolve"
LUT_3D_SIZE 33
0 0 0
0.0295567 0 0
0.0604105 0 0
0.0917525 0 0
0.12343 0 0
0.155352 0 0
0.187472 0 0
0.21976 0 0
0.252186 0 0
0.284733 0 0
0.317403 0 0
0.350164 0 0
0.383017 0 0
0.415961 0 0
0.448981 0 0
0.482063 0 0
0.515221 0 0
0.54844 0 0
0.581735 0 0
0.615061 0 0
0.648463 0 0
0.681895 0 0
0.715389 0 0
0.748928 0 0
0.782513 0 0
0.816144 0 0
0.849805 0 0
0.883513 0 0
0.917266 0 0
0.951049 0 0
0.984863 0 0
1 0 0
1 0 0
0 0.0284733 0
0.0280766 0.0281224 0
0.059144 0.0275425 0
0.0906539 0.0268864 0
0.122454 0.0261845 0
0.154482 0.0254673 0
0.186694 0.0247196 0
0.219059 0.0239567 0
0.251545 0.0231785 0
0.284169 0.0224002 0
0.316884 0.0216068 0
0.349706 0.0208133 0
0.382605 0.0200046 0
0.415595 0.0191958 0
0.448661 0.0183719 0
0.481788 0.0175479 0
0.514977 0.0167239 0
0.548241 0.0158999 0
0.581552 0.0150607 0
0.614923 0.0142367 0
0.648356 0.0133974 0
0.681819 0.0125582 0
0.715343 0.0117037 0
0.748913 0.0108644 0
0.782528 0.0100099 0
0.816175 0.00917067 0
0.849867 0.00831617 0
0.883604 0.00746166 0
0.917372 0.00660716 0
0.951171 0.00573739 0
0.985016 0.00488289 0
1 0.00402838 0
1 0.00315862 0
0 0.0581979 0
0.0261997 0.057969 0
0.0573587 0.0574807 0
0.0889601 0.0569162 0
0.120836 0.0562905 0
0.152926 0.0556344 0
0.185199 0.0549477 0
0.217624 0.0542458 0
0.250172 0.0535286 0
0.282841 0.052781 0
0.315602 0.0520485 0
0.34847 0.0512856 0
0.381415 0.0505226 0
0.414435 0.0497444 0
0.447532 0.0489662 0
0.48069 0.0481727 0
0.513924 0.0473793 0
0.547219 0.0465858 0
0.58056 0.0457771 0
0.613962 0.0449683 0
0.64741 0.0441596 0
0.680903 0.0433509 0
0.714458 0.0425269 0
0.748043 0.0417029 0
0.781674 0.0408789 0
0.815351 0.0400549 0
0.849073 0.0392309 0
0.882826 0.0383917 0
0.916609 0.0375525 0
0.950439 0.0367132 0
0.984298 0.035874 0
1 0.0350347 0
1 0.0341955 0
0 0.0883955 0
0.0242466 0.0882429 0
0.0554818 0.0878157 0
0.087129 0.0873121 0
0.119066 0.0867475 0
0.151217 0.0861372 0
0.183536 0.0854963 0
0.215991 0.0848402 0
0.248585 0.0841535 0
0.281285 0.0834669 0
0.314092 0.0827497 0
0.34699 0.0820325 0
0.379965 0.0813001 0
0.413016 0.0805524 0
0.446143 0.0798047 0
0.479347 0.0790417 0
0.512596 0.0782788 0
0.545907 0.0775158 0
0.579278 0.0767376 0
0.612711 0.0759442 0
0.646189 0.0751659 0
0.679713 0.0743725 0
0.713268 0.073579 0
0.746883 0.0727703 0
0.780545 0.0719768 0
0.814237 0.0711681 0
0.847974 0.0703593 0
0.881743 0.0695354 0
0.915557 0.0687266 0
0.949401 0.0679026 0
0.983276 0.0670787 0
1 0.0662547 0
1 0.0654307 0
0 0.118914 0
0.0222477 0.118807 0
0.0535286 0.118441 0
0.0852216 0.117968 0
0.117205 0.117449 0
0.149386 0.116884 0
0.18175 0.116289 0
0.214252 0.115663 0
0.246876 0.115007 0
0.279622 0.114351 0
0.312444 0.113664 0
0.345373 0.112978 0
0.378378 0.112276 0
0.41146 0.111559 0
0.444617 0.110842 0
0.477836 0.110109 0
0.511116 0.109361 0
0.544457 0.108614 0
0.577844 0.107866 0
0.611292 0.107103 0
0.644785 0.10634 0
0.67834 0.105562 0
0.711925 0.104784 0
0.745556 0.104005 0
0.779232 0.103227 0
0.81294 0.102434 0
0.846693 0.10164 0
0.880491 0.100847 0
0.914305 0.100038 0
0.948165 0.0992447 0
0.982071 0.098436 0
1 0.0976272 0
1 0.0968185 0
0 0.14966 0
0.0202182 0.149599 0
0.051545 0.149264 0
0.0832837 0.148836 0
0.115297 0.148348 0
0.147524 0.147814 0
0.179904 0.14725 0
0.212436 0.14667 0
0.24509 0.146044 0
0.277852 0.145403 0
0.310719 0.144762 0
0.343679 0.144091 0
0.376699 0.14342 0
0.409812 0.142718 0
0.442985 0.142016 0
0.476234 0.141314 0
0.509529 0.140597 0
0.542885 0.139864 0
0.576303 0.139132 0
0.609766 0.138384 0
0.64329 0.137652 0
0.676844 0.136889 0
0.71046 0.136141 0
0.744106 0.135378 0
0.777798 0.1346 0
0.811536 0.133837 0
0.845304 0.133059 0
0.879103 0.13228 0
0.912947 0.131487 0
0.946822 0.130709 0
0.980728 0.129915 0
1 0.129122 0
1 0.128328 0
0 0.180606 0
0.0181735 0.180575 0
0.0495308 0.18027 0
0.0813001 0.179889 0
0.113344 0.179431 0
0.145602 0.178927 0
0.178012 0.178378 0
0.210575 0.177813 0
0.243259 0.177234 0
0.276051 0.176623 0
0.308934 0.175982 0
0.341909 0.175341 0
0.37496 0.174685 0
0.408087 0.174014 0
0.441291 0.173342 0
0.47454 0.172656 0
0.507866 0.171954 0
0.541253 0.171237 0
0.574685 0.17052 0
0.608164 0.169802 0
0.641703 0.16907 0
0.675273 0.168338 0
0.708904 0.167605 0
0.742565 0.166857 0
0.776272 0.16611 0
0.810025 0.165347 0
0.843809 0.164584 0
0.877623 0.163821 0
0.911482 0.163058 0
0.945373 0.16228 0
0.979294 0.161501 0
1 0.160723 0
1 0.159945 0
0 0.211704 0
0.0161135 0.211704 0
0.0475013 0.211429 0
0.0793011 0.211063 0
0.111376 0.210636 0
0.143648 0.210163 0
0.176089 0.209644 0
0.208667 0.20911 0
0.241382 0.20853 0
0.274189 0.20795 0
0.307088 0.20734 0
0.340093 0.206714 0
0.373159 0.206073 0
0.406317 0.205432 0
0.439521 0.204776 0
0.472801 0.204105 0
0.506142 0.203418 0
0.539544 0.202731 0
0.572992 0.202029 0
0.6065 0.201328 0
0.64004 0.20061 0
0.67364 0.199893 0
0.707286 0.199176 0
0.740963 0.198444 0
0.774685 0.197696 0
0.808454 0.196963 0
0.842252 0.196216 0
0.876081 0.195468 0
0.909957 0.194705 0
0.943847 0.193942 0
0.977783 0.193179 0
1 0.192416 0
1 0.191653 0
0 0.242939 0
0.0140536 0.242969 0
0.0454566 0.242725 0
0.0772869 0.24239 0
0.109377 0.241978 0
0.141665 0.24152 0
0.174136 0.241032 0
0.206744 0.240497 0
0.23946 0.239963 0
0.272297 0.239384 0
0.305226 0.238804 0
0.338231 0.238193 0
0.371328 0.237583 0
0.404486 0.236942 0
0.43772 0.236301 0
0.471031 0.235645 0
0.504387 0.234989 0
0.537789 0.234318 0
0.571267 0.233631 0
0.604776 0.232944 0
0.638346 0.232242 0
0.671946 0.23154 0
0.705608 0.230823 0
0.7393 0.230106 0
0.773037 0.229389 0
0.806806 0.228656 0
0.84062 0.227924 0
0.874479 0.227192 0
0.908354 0.226444 0
0.942275 0.225696 0
0.976226 0.224948 0
1 0.224201 0
1 0.223438 0
0 0.274296 0
0.0119631 0.274342 0
0.0433967 0.274128 0
0.0752422 0.273808 0
0.107347 0.273426 0
0.139666 0.272984 0
0.172152 0.272511 0
0.204776 0.272007 0
0.237522 0.271489 0
0.270375 0.270924 0
0.303319 0.270359 0
0.336355 0.26978 0
0.369451 0.269169 0
0.40264 0.268559 0
0.435889 0.267933 0
0.4692 0.267292 0
0.502571 0.266636 0
0.536004 0.26598 0
0.569482 0.265324 0
0.603021 0.264637 0
0.636591 0.263966 0
0.670222 0.263264 0
0.703883 0.262577 0
0.737591 0.261875 0
0.771344 0.261158 0
0.805127 0.260441 0
0.838956 0.259724 0
0.872816 0.258991 0
0.906706 0.258274 0
0.940642 0.257527 0
0.974594 0.256794 0
1 0.256046 0
1 0.255299 0
0 0.30576 0
0.00987259 0.305837 0
0.0413214 0.305638 0
0.0731823 0.305333 0
0.105318 0.304967 0
0.137652 0.304555 0
0.170153 0.304097 0
0.202792 0.303609 0
0.235554 0.30309 0
0.268421 0.302556 0
0.301381 0.302007 0
0.334432 0.301442 0
0.367559 0.300847 0
0.400763 0.300252 0
0.434028 0.299641 0
0.467353 0.299016 0
0.50074 0.29839 0
0.534173 0.297734 0
0.567666 0.297078 0
0.601221 0.296422 0
0.634806 0.29575 0
0.668452 0.295079 0
0.702129 0.294392 0
0.735851 0.293706 0
0.769604 0.293004 0
0.803403 0.292302 0
0.837247 0.2916 0
0.871122 0.290883 0
0.905028 0.290166 0
0.938964 0.289433 0
0.97293 0.288716 0
1 0.287984 0
1 0.287236 0
0 0.337331 0
0.00776684 0.337423 0
0.0392462 0.33724 0
0.0711223 0.33695 0
0.103273 0.336599 0
0.135622 0.336202 0
0.168139 0.33576 0
0.200809 0.335286 0
0.233585 0.334798 0
0.266453 0.334279 0
0.299443 0.333745 0
0.332494 0.333181 0
0.365637 0.332616 0
0.398856 0.332021 0
0.432135 0.331426 0
0.465476 0.330816 0
0.498863 0.330205 0
0.532326 0.329564 0
0.565835 0.328923 0
0.59939 0.328283 0
0.63299 0.327626 0
0.666636 0.326955 0
0.700343 0.326284 0
0.734066 0.325597 0
0.767849 0.32491 0
0.801648 0.324224 0
0.835508 0.323522 0
0.869383 0.32282 0
0.903304 0.322118 0
0.937255 0.321401 0
0.971237 0.320684 0
1 0.319966 0
1 0.319234 0
0 0.368978 0
0.0056611 0.369085 0
0.0371557 0.368917 0
0.0690471 0.368658 0
0.101213 0.368322 0
0.133577 0.367926 0
0.166125 0.367514 0
0.198795 0.367056 0
0.231586 0.366567 0
0.264469 0.366064 0
0.297459 0.365545 0
0.330541 0.365011 0
0.363699 0.364446 0
0.396918 0.363882 0
0.430213 0.363287 0
0.463569 0.362692 0
0.496986 0.362081 0
0.530449 0.361471 0
0.563973 0.36083 0
0.597543 0.360204 0
0.631159 0.359548 0
0.66482 0.358892 0
0.698512 0.358236 0
0.732265 0.357565 0
0.766049 0.356893 0
0.799863 0.356222 0
0.833722 0.355535 0
0.867613 0.354833 0
0.901549 0.354147 0
0.935515 0.353445 0
0.969497 0.352728 0
1 0.352026 0
1 0.351308 0
0 0.400702 0
0.00355535 0.400824 0
0.03505 0.400687 0
0.0669718 0.400427 0
0.0991531 0.400107 0
0.131533 0.399741 0
0.16408 0.399329 0
0.196765 0.398886 0
0.229572 0.398428 0
0.26247 0.39794 0
0.295476 0.397421 0
0.328573 0.396887 0
0.36173 0.396353 0
0.39498 0.395789 0
0.428275 0.395209 0
0.461646 0.394629 0
0.495064 0.394034 0
0.528542 0.393423 0
0.562081 0.392813 0
0.595666 0.392187 0
0.629282 0.391546 0
0.662959 0.390906 0
0.696666 0.390249 0
0.730434 0.389593 0
0.764218 0.388937 0
0.798062 0.388266 0
0.831922 0.387594 0
0.865827 0.386908 0
0.899763 0.386221 0
0.93373 0.385534 0
0.967742 0.384833 0
1 0.384131 0
1 0.383413 0
0 0.432517 0
0.00143435 0.432654 0
0.0329442 0.432517 0
0.0648661 0.432273 0
0.0970626 0.431968 0
0.129473 0.431617 0
0.16202 0.43122 0
0.19472 0.430793 0
0.227543 0.430335 0
0.260471 0.429862 0
0.293477 0.429358 0
0.326574 0.428855 0
0.359762 0.428321 0
0.393011 0.427771 0
0.426322 0.427207 0
0.459709 0.426627 0
0.493141 0.426047 0
0.526635 0.425452 0
0.560174 0.424842 0
0.593759 0.424231 0
0.627405 0.423606 0
0.661082 0.422965 0
0.694804 0.422339 0
0.728573 0.421683 0
0.762371 0.421027 0
0.796216 0.420371 0
0.830091 0.419699 0
0.864012 0.419028 0
0.897963 0.418357 0
0.93193 0.41767 0
0.965942 0.416983 0
0.999985 0.416297 0
1 0.415595 0
0 0.464393 0
0 0.464546 0
0.0308385 0.464424 0
0.0627756 0.464195 0
0.0949874 0.463905 0
0.127398 0.463554 0
0.15996 0.463172 0
0.192676 0.46276 0
0.225513 0.462318 0
0.258442 0.46186 0
0.291463 0.461372 0
0.324575 0.460868 0
0.357763 0.460349 0
0.391028 0.4598 0
0.424353 0.459251 0
0.45774 0.458686 0
0.491188 0.458122 0
0.524697 0.457527 0
0.558251 0.456931 0
0.591852 0.456336 0
0.625498 0.455711 0
0.65919 0.4551 0
0.692927 0.454459 0
0.726696 0.453819 0
0.76051 0.453178 0
0.794354 0.452537 0
0.828244 0.451881 0
0.862165 0.451209 0
0.896132 0.450538 0
0.930114 0.449866 0
0.964141 0.44918 0
0.998184 0.448508 0
1 0.447807 0
0 0.49633 0
0 0.496498 0
0.0287175 0.496391 0
0.0606699 0.496178 0
0.0928817 0.495903 0
0.125307 0.495567 0
0.1579 0.495201 0
0.190616 0.494789 0
0.223453 0.494362 0
0.256397 0.493904 0
0.289448 0.493431 0
0.32256 0.492943 0
0.355764 0.492424 0
0.389044 0.491905 0
0.42237 0.491356 0
0.455772 0.490806 0
0.489235 0.490242 0
0.522744 0.489662 0
0.556298 0.489082 0
0.589914 0.488487 0
0.623575 0.487877 0
0.657267 0.487266 0
0.69102 0.486641 0
0.724804 0.486015 0
0.758618 0.48539 0
0.792477 0.484733 0
0.826383 0.484092 0
0.860319 0.483436 0
0.89427 0.48278 0
0.928267 0.482109 0
0.96231 0.481437 0
0.996368 0.480766 0
1 0.480079 0
0 0.528328 0
0 0.528511 0
0.0265965 0.52842 0
0.0585489 0.528222 0
0.0907912 0.527947 0
0.123217 0.527626 0
0.15581 0.52726 0
0.188556 0.526879 0
0.221408 0.526452 0
0.254353 0.526009 0
0.287404 0.525551 0
0.320546 0.525063 0
0.35375 0.524559 0
0.38703 0.524041 0
0.420386 0.523522 0
0.453788 0.522972 0
0.487251 0.522423 0
0.520775 0.521859 0
0.554345 0.521279 0
0.587961 0.520684 0
0.621637 0.520088 0
0.655344 0.519493 0
0.689097 0.518883 0
0.722896 0.518257 0
0.756725 0.517632 0
0.790585 0.517006 0
0.824491 0.516365 0
0.858442 0.515709 0
0.892409 0.515068 0
0.926421 0.514397 0
0.960449 0.513741 0
0.994522 0.513069 0
1 0.512398 0
0 0.560388 0
0 0.560586 0
0.0244602 0.560494 0
0.0564279 0.560311 0
0.0886702 0.560052 0
0.121126 0.559747 0
0.153735 0.559396 0
0.186481 0.559014 0
0.219333 0.558602 0
0.252308 0.558175 0
0.285359 0.557717 0
0.318502 0.557244 0
0.35172 0.556756 0
0.385016 0.556237 0
0.418372 0.555718 0
0.451789 0.555184 0
0.485267 0.55465 0
0.518791 0.554086 0
0.552377 0.553521 0
0.586007 0.552941 0
0.619684 0.552361 0
0.653407 0.551766 0
0.68716 0.551156 0
0.720958 0.550546 0
0.754803 0.549935 0
0.788678 0.54931 0
0.822599 0.548669 0
0.85655 0.548028 0
0.890517 0.547387 0
0.924544 0.546746 0
0.958587 0.54609 0
0.99266 0.545419 0
1 0.544762 0
0 0.592508 0
0 0.592706 0
0.0223239 0.59263 0
0.0543069 0.592462 0
0.0865644 0.592203 0
0.11902 0.591913 0
0.151644 0.591577 0
0.18439 0.591196 0
0.217258 0.590799 0
0.250233 0.590372 0
0.283314 0.589929 0
0.316457 0.589471 0
0.349691 0.588983 0
0.382986 0.588495 0
0.416358 0.587976 0
0.44979 0.587457 0
0.483268 0.586923 0
0.516808 0.586374 0
0.550393 0.585809 0
0.584039 0.585245 0
0.617716 0.584665 0
0.651438 0.58407 0
0.685206 0.583474 0
0.71902 0.582879 0
0.752865 0.582269 0
0.786755 0.581643 0
0.820676 0.581033 0
0.854627 0.580392 0
0.888624 0.579767 0
0.922637 0.579126 0
0.956695 0.57847 0
0.990784 0.577813 0
1 0.577157 0
0 0.624674 0
0 0.624887 0
0.0201877 0.624826 0
0.0521859 0.624659 0
0.0844434 0.624414 0
0.116915 0.624125 0
0.149538 0.623804 0
0.1823 0.623438 0
0.215183 0.623056 0
0.248173 0.622629 0
0.281239 0.622202 0
0.314412 0.621744 0
0.347646 0.621271 0
0.380957 0.620783 0
0.414328 0.620279 0
0.447761 0.61976 0
0.481254 0.619226 0
0.514809 0.618692 0
0.548409 0.618143 0
0.582055 0.617578 0
0.615747 0.617014 0
0.64947 0.616434 0
0.683253 0.615854 0
0.717067 0.615259 0
0.750927 0.614649 0
0.784817 0.614038 0
0.818753 0.613428 0
0.852705 0.612802 0
0.886702 0.612177 0
0.920729 0.611536 0
0.954803 0.610895 0
0.988891 0.610254 0
1 0.609598 0
0 0.656901 0
0 0.657115 0
0.0180514 0.657069 0
0.0500496 0.656901 0
0.0823224 0.656672 0
0.114794 0.656397 0
0.147433 0.656077 0
0.180209 0.655726 0
0.213092 0.655344 0
0.246082 0.654932 0
0.279179 0.654505 0
0.312352 0.654063 0
0.345586 0.65359 0
0.378912 0.653117 0
0.412299 0.652628 0
0.445731 0.65211 0
0.47924 0.651591 0
0.512795 0.651057 0
0.546395 0.650523 0
0.580056 0.649973 0
0.613748 0.649409 0
0.647501 0.648829 0
0.681285 0.648249 0
0.715099 0.647669 0
0.748974 0.647074 0
0.782864 0.646464 0
0.8168 0.645869 0
0.850782 0.645243 0
0.884779 0.644633 0
0.918822 0.643992 0
0.95288 0.643366 0
0.986984 0.642725 0
1 0.642084 0
0 0.689158 0
0 0.689387 0
0.0158999 0.689342 0
0.0479133 0.689189 0
0.0801862 0.688975 0
0.112673 0.688701 0
0.145327 0.688396 0
0.178103 0.688045 0
0.211002 0.687678 0
0.244007 0.687282 0
0.277104 0.686854 0
0.310277 0.686427 0
0.343526 0.685969 0
0.376852 0.685496 0
0.410254 0.685008 0
0.443702 0.684504 0
0.477211 0.684001 0
0.510765 0.683467 0
0.544381 0.682933 0
0.578042 0.682399 0
0.611749 0.681834 0
0.645502 0.68127 0
0.679301 0.680705 0
0.71313 0.680125 0
0.747005 0.67953 0
0.780911 0.678935 0
0.814847 0.67834 0
0.848829 0.677729 0
0.882841 0.677119 0
0.916884 0.676493 0
0.950957 0.675868 0
0.985061 0.675242 0
1 0.674601 0
0 0.721462 0
0 0.721706 0
0.0137484 0.721675 0
0.0457618 0.721523 0
0.0780499 0.721325 0
0.110552 0.721065 0
0.143206 0.72076 0
0.175998 0.720424 0
0.208896 0.720058 0
0.241917 0.719661 0
0.275013 0.719249 0
0.308202 0.718822 0
0.341466 0.718379 0
0.374792 0.717906 0
0.408194 0.717433 0
0.441657 0.716945 0
0.475166 0.716442 0
0.508736 0.715923 0
0.542367 0.715389 0
0.576028 0.714855 0
0.609751 0.714305 0
0.643503 0.713756 0
0.677302 0.713191 0
0.711147 0.712612 0
0.745022 0.712032 0
0.778943 0.711452 0
0.812894 0.710857 0
0.846876 0.710246 0
0.880888 0.709636 0
0.914931 0.709026 0
0.94902 0.708415 0
0.983124 0.70779 0
1 0.707149 0
0 0.753826 0
0 0.75407 0
0.0115969 0.75404 0
0.0436255 0.753902 0
0.0759136 0.753704 0
0.108415 0.753445 0
0.141085 0.753155 0
0.173877 0.752834 0
0.20679 0.752468 0
0.239811 0.752087 0
0.272923 0.75169 0
0.306127 0.751263 0
0.339391 0.75082 0
0.372732 0.750378 0
0.406134 0.749905 0
0.439597 0.749416 0
0.473121 0.748913 0
0.506706 0.748409 0
0.540337 0.74789 0
0.574014 0.747356 0
0.607736 0.746822 0
0.641489 0.746273 0
0.675303 0.745708 0
0.709148 0.745144 0
0.743038 0.744564 0
0.776959 0.743984 0
0.81091 0.743404 0
0.844907 0.742809 0
0.87892 0.742199 0
0.912978 0.741604 0
0.947066 0.740978 0
0.981186 0.740368 0
1 0.739742 0
0 0.786206 0
0 0.786465 0
0.00943008 0.78645 0
0.041474 0.786328 0
0.0737774 0.78613 0
0.106279 0.785885 0
0.138949 0.785595 0
0.171756 0.785275 0
0.204685 0.784924 0
0.237705 0.784558 0
0.270832 0.784161 0
0.304036 0.783749 0
0.337316 0.783322 0
0.370657 0.782864 0
0.404074 0.782406 0
0.437537 0.781918 0
0.471077 0.78143 0
0.504662 0.780926 0
0.538293 0.780423 0
0.571984 0.779889 0
0.605707 0.779355 0
0.639475 0.77882 0
0.673289 0.778271 0
0.707149 0.777707 0
0.741039 0.777142 0
0.77496 0.776562 0
0.808927 0.775982 0
0.842924 0.775402 0
0.876951 0.774807 0
0.911009 0.774197 0
0.945113 0.773587 0
0.979232 0.772976 0
1 0.772366 0
0 0.818647 0
0 0.818906 0
0.00726329 0.818906 0
0.0393225 0.818784 0
0.0716259 0.818601 0
0.104143 0.818357 0
0.136828 0.818082 0
0.169635 0.817761 0
0.202564 0.817426 0
0.235599 0.81706 0
0.268727 0.816678 0
0.30193 0.816266 0
0.335225 0.815839 0
0.368582 0.815396 0
0.401999 0.814939 0
0.435477 0.814466 0
0.469017 0.813977 0
0.502602 0.813489 0
0.536248 0.812985 0
0.56994 0.812467 0
0.603677 0.811933 0
0.637446 0.811399 0
0.671275 0.810864 0
0.705135 0.8103 0
0.739025 0.80975 0
0.772961 0.809171 0
0.806928 0.808606 0
0.84094 0.808026 0
0.874968 0.807431 0
0.909041 0.806836 0
0.943145 0.806241 0
0.977264 0.805631 0
1 0.80502 0
0 0.851118 0
0 0.851392 0
0.00511177 0.851392 0
0.0371557 0.85127 0
0.0694743 0.851102 0
0.102007 0.850874 0
0.134691 0.850599 0
0.167514 0.850294 0
0.200443 0.849958 0
